X:1
T: Mammy's Pet
C:
R:Reel
Q: 232
K:C
M:4/4
L:1/8
|:c2 Bc A2 G2|c2 ec gc ec|c2 Bc A2 G2|ea ag e2 d2|
c2 Bc A2 G2|c2 ec gc ec|c2 Bc A2 G2|ea ag e2 d2|
ed de ec ce|ed de ea ag|ed de ed de|ea ag e2 d2|
ed d2 ec c2|ed d2 ea a2|c2 d2 ec cd|ea ag e2 d2:|
